SimpleWeather.Shared/Resources/Images/WeatherIcons/svg/light/ic_ragweed_pollen.svg

<?xml version="1.0" encoding="UTF-8" standalone="no"?>
<svg viewBox="0 0 192 192" id="vector" version="1.1" width="192" height="192" xmlns="http://www.w3.org/2000/svg" xmlns:svg="http://www.w3.org/2000/svg">
  <defs id="defs1" />
  <g id="group" transform="matrix(6.4,0,0,6.4,22.399991,18.465192)" style="fill:#000000">
    <path id="path" d="M 22,20 C 12.6,20 5,12.4 5,3 m 10,16.3 c 0,0 -1.5,2.3 -3.8,2.7 -1.8,0.3 -3.9,-2 -3.9,-2 0,0 1.4,-1.6 3.3,-1.9 2,-0.4 4.4,1.2 4.4,1.2 z" fill="#00000000" stroke="#ffffff" stroke-width="1.2" stroke-linecap="round" stroke-linejoin="round" fill-rule="evenodd" style="fill:none;stroke:#000000" />
    <path id="path_1" d="M 3,14 C 3,14 4.6,12.7 6.5,12.9 7.9,13.1 9,15.3 9,15.3 9,15.3 7.5,16.2 6.1,16 4.4,15.8 3,14 3,14 Z m 7.1,0 C 10.1,14 8.7,12.5 8.8,10.6 9,9.1 11.2,8 11.2,8 c 0,0 0.9,1.4 0.8,2.8 -0.1,1.7 -1.9,3.2 -1.9,3.2 z M 1,6.3 c 0,0 0.1,1.9 1.4,3 1,0.8 3.1,0.2 3.1,0.2 C 5.5,9.5 5.2,8 4.2,7.1 3,6.1 1,6.3 1,6.3 Z M 6.1,7.1 C 6.1,7.1 7.9,6.8 8.8,5.3 9.5,4.2 8.5,2.2 8.5,2.2 8.5,2.2 7.2,2.8 6.5,3.9 5.7,5.2 6.1,7.1 6.1,7.1 Z m 9,5 c 0,0 -1.1,2.5 -0.1,4.7 0.7,1.7 3.9,2.2 3.9,2.2 0,0 0.6,-2.1 -0.2,-3.8 -0.9,-2 -3.6,-3.1 -3.6,-3.1 z" fill="#00000000" stroke="#ffffff" stroke-width="1.2" stroke-linecap="round" stroke-linejoin="round" fill-rule="evenodd" style="fill:none;stroke:#000000" />
  </g>
</svg>

<svg
    xmlns="http://www.w3.org/2000/svg"
    viewBox="0 0 24 24"
    id="vector">
    <g
        id="group"
        transform="translate(2.5 2.5) scale(0.8 0.8)">
        <path
            id="path"
            d="M 22 20 C 12.6 20 5 12.4 5 3 M 15 19.3 C 15 19.3 13.5 21.6 11.2 22 C 9.4 22.3 7.3 20 7.3 20 C 7.3 20 8.7 18.4 10.6 18.1 C 12.6 17.7 15 19.3 15 19.3 L 15 19.3 Z"
            fill="#00000000"
            stroke="#000000"
            stroke-width="1.2"
            stroke-linecap="round"
            stroke-linejoin="round"
            fill-rule="evenodd"/>
        <path
            id="path_1"
            d="M 3 14 C 3 14 4.6 12.7 6.5 12.9 C 7.9 13.1 9 15.3 9 15.3 C 9 15.3 7.5 16.2 6.1 16 C 4.4 15.8 3 14 3 14 L 3 14 Z M 10.1 14 C 10.1 14 8.7 12.5 8.8 10.6 C 9 9.1 11.2 8 11.2 8 C 11.2 8 12.1 9.4 12 10.8 C 11.9 12.5 10.1 14 10.1 14 L 10.1 14 Z M 1 6.3 C 1 6.3 1.1 8.2 2.4 9.3 C 3.4 10.1 5.5 9.5 5.5 9.5 C 5.5 9.5 5.2 8 4.2 7.1 C 3 6.1 1 6.3 1 6.3 L 1 6.3 Z M 6.1 7.1 C 6.1 7.1 7.9 6.8 8.8 5.3 C 9.5 4.2 8.5 2.2 8.5 2.2 C 8.5 2.2 7.2 2.8 6.5 3.9 C 5.7 5.2 6.1 7.1 6.1 7.1 L 6.1 7.1 Z M 15.1 12.1 C 15.1 12.1 14 14.6 15 16.8 C 15.7 18.5 18.9 19 18.9 19 C 18.9 19 19.5 16.9 18.7 15.2 C 17.8 13.2 15.1 12.1 15.1 12.1 L 15.1 12.1 Z"
            fill="#00000000"
            stroke="#000000"
            stroke-width="1.2"
            stroke-linecap="round"
            stroke-linejoin="round"
            fill-rule="evenodd"/>
    </g>
</svg>
